assets/icons/weather-filled.svg

<?xml version="1.0" encoding="UTF-8" standalone="no"?>
<svg
   viewBox="0 0 24 24"
   height="24"
   id="svg7384"
   version="1.1"
   width="24"
   sodipodi:docname="weather-filled.svg"
   inkscape:version="1.2 (1:1.2.1+202207142221+cd75a1ee6d)"
   xmlns:inkscape="http://www.inkscape.org/namespaces/inkscape"
   xmlns:sodipodi="http://sodipodi.sourceforge.net/DTD/sodipodi-0.dtd"
   xmlns="http://www.w3.org/2000/svg"
   xmlns:svg="http://www.w3.org/2000/svg"
   xmlns:rdf="http://www.w3.org/1999/02/22-rdf-syntax-ns#"
   xmlns:cc="http://creativecommons.org/ns#"
   xmlns:dc="http://purl.org/dc/elements/1.1/">
  <sodipodi:namedview
     id="namedview22"
     pagecolor="#ffffff"
     bordercolor="#666666"
     borderopacity="1.0"
     inkscape:pageshadow="2"
     inkscape:pageopacity="0.0"
     inkscape:pagecheckerboard="0"
     showgrid="true"
     width="24px"
     inkscape:snap-page="true"
     inkscape:zoom="16"
     inkscape:cx="28.5625"
     inkscape:cy="3.5"
     inkscape:window-width="1920"
     inkscape:window-height="1043"
     inkscape:window-x="0"
     inkscape:window-y="0"
     inkscape:window-maximized="1"
     inkscape:current-layer="svg7384"
     inkscape:showpageshadow="2"
     inkscape:deskcolor="#d1d1d1">
    <inkscape:grid
       type="xygrid"
       id="grid23" />
  </sodipodi:namedview>
  <metadata
     id="metadata20854">
    <rdf:RDF>
      <cc:Work
         rdf:about="">
        <dc:format>image/svg+xml</dc:format>
        <dc:type
           rdf:resource="http://purl.org/dc/dcmitype/StillImage" />
      </cc:Work>
    </rdf:RDF>
  </metadata>
  <defs
     id="defs7386">
    <linearGradient
       id="linearGradient5606"
       inkscape:swatch="solid">
      <stop
         id="stop5608"
         offset="0"
         style="stop-color:#000000;stop-opacity:1;" />
    </linearGradient>
    <linearGradient
       id="linearGradient4526"
       inkscape:swatch="solid">
      <stop
         id="stop4528"
         offset="0"
         style="stop-color:#ffffff;stop-opacity:1;" />
    </linearGradient>
    <linearGradient
       id="linearGradient3600-4"
       inkscape:swatch="gradient">
      <stop
         id="stop3602-7"
         offset="0"
         style="stop-color:#f4f4f4;stop-opacity:1" />
      <stop
         id="stop3604-6"
         offset="1"
         style="stop-color:#dbdbdb;stop-opacity:1" />
    </linearGradient>
  </defs>
  <g
     id="layer9"
     label="status"
     style="display:inline;stroke-width:0.8"
     transform="matrix(1.25,0,0,1.25,-1089.2503,85.75)" />
  <g
     id="layer2"
     style="display:inline;stroke-width:0.8"
     transform="matrix(1.25,0,0,1.25,-788.00005,-373)" />
  <g
     id="layer4"
     style="display:inline;stroke-width:0.8"
     transform="matrix(1.25,0,0,1.25,-788.00005,-373)" />
  <g
     id="g1812"
     style="display:inline;stroke-width:0.8"
     transform="matrix(1.25,0,0,1.25,-788.00005,-373)" />
  <g
     id="g6217"
     style="display:inline;stroke-width:0.8"
     transform="matrix(1.25,0,0,1.25,-788.00005,-373)" />
  <g
     id="layer3"
     style="display:inline;stroke-width:0.8"
     transform="matrix(1.25,0,0,1.25,-788.00005,-373)" />
  <g
     id="layer1"
     style="display:inline;stroke-width:0.8"
     transform="matrix(1.25,0,0,1.25,-788.00005,-373)" />
  <path
     id="rect255"
     style="fill:#808080;fill-opacity:1;fill-rule:evenodd;stroke-width:0.5;stroke-linecap:square;stroke-linejoin:round"
     d="M 9.8046875 3.8046875 L 8.5371094 6 L 6 6 L 6 8.5371094 L 3.8046875 9.8046875 L 5.0722656 12 L 3.8046875 14.195312 L 6 15.462891 L 6 18 L 8.5371094 18 L 9.8046875 20.195312 L 11.880859 18.996094 C 9.7379904 18.932274 8 17.157394 8 15 C 8 12.996175 9.5226209 11.390868 11.453125 11.111328 C 12.218518 9.2772477 13.966948 8.00445 15.998047 8 L 16 8 C 16.715445 8 17.391422 8.1549919 18 8.4316406 L 18 6 L 15.462891 6 L 14.195312 3.8046875 L 12 5.0722656 L 9.8046875 3.8046875 z " />
  <path
     style="fill:#808080;fill-opacity:1;fill-rule:evenodd;stroke-width:0.5;stroke-linecap:square;stroke-linejoin:round"
     d="m 16,10 c 1.656854,0 3,1.343146 3,3 -0.0011,0.01954 -0.0024,0.03908 -0.0039,0.05859 -0.0094,0.397534 -0.09766,0.789241 -0.259766,1.152344 0.231053,-0.137483 0.494811,-0.210337 0.763672,-0.210938 0.11978,7.9e-5 0.23912,0.0145 0.355469,0.04297 0.671719,0.163851 1.14442,0.765617 1.144531,1.457031 0,0.828427 -0.671573,1.5 -1.5,1.5 h -7.5 c -1.104569,0 -2,-0.895431 -2,-2 0,-1.104569 0.895431,-2 2,-2 0.359587,2.17e-4 0.712464,0.09738 1.021484,0.28125 -0.01157,-0.09336 -0.01874,-0.187215 -0.02148,-0.28125 0.0028,-0.265579 0.04093,-0.529606 0.113281,-0.785156 0.353638,-1.304139 1.535489,-2.210918 2.886719,-2.214844 z"
     id="path252" />
  <path
     style="fill:#808080;fill-opacity:1;fill-rule:evenodd;stroke-width:0.5;stroke-linecap:square;stroke-linejoin:round"
     d="m 16,9 c -1.822234,0.00399 -3.411458,1.239072 -3.865234,3.003906 -0.04489,-0.0023 -0.08982,-0.0036 -0.134766,-0.0039 -1.656854,0 -3,1.343146 -3,3 0,1.656854 1.343146,3 3,3 h 7.5 c 1.380712,0 2.5,-1.119288 2.5,-2.5 -5.06e-4,-1.189077 -0.838475,-2.213261 -2.003906,-2.449219 0.0014,-0.01692 0.0027,-0.03385 0.0039,-0.05078 0,-2.209139 -1.790861,-4 -4,-4 z"
     id="rect1606" />
</svg>

<svg height="24" width="24" xmlns="http://www.w3.org/2000/svg"><path style="fill:gray;fill-opacity:1;stroke-width:.5;stroke-linecap:square;stroke-linejoin:round" d="M9.805 3.805 8.537 6H6v2.537L3.805 9.805 5.072 12l-1.267 2.195L6 15.463V18h2.537l1.268 2.195 2.076-1.199C9.738 18.932 8 17.157 8 15c0-2.004 1.523-3.61 3.453-3.889.766-1.834 2.514-3.107 4.545-3.111H16c.715 0 1.391.155 2 .432V6h-2.537l-1.268-2.195L12 5.072 9.805 3.805z"/><path style="fill:gray;fill-opacity:1;stroke-width:.5;stroke-linecap:square;stroke-linejoin:round" d="M16 10a3 3 0 0 1 3 3l-.004.059a3 3 0 0 1-.26 1.152 1.5 1.5 0 0 1 1.12-.168A1.5 1.5 0 0 1 19.5 17H12a2 2 0 1 1 1.021-3.719A2.996 2.996 0 0 1 13 13c.003-.266.04-.53.113-.785A3 3 0 0 1 16 10z"/><path style="fill:gray;fill-opacity:1;stroke-width:.5;stroke-linecap:square;stroke-linejoin:round" d="M16 9a4 4 0 0 0-3.865 3.004A3 3 0 1 0 12 18h7.5a2.5 2.5 0 0 0 .496-4.95A4.32 4.32 0 0 0 20 13a4 4 0 0 0-4-4z"/></svg>
